X:1
T:Whispering in My Heart
T:Whispering in My Heart
T:James Bruce Mackay
T:James Bruce Mackay, 1898
T:Public Domain Courtesy of the Cyber Hymnal™
T:Public Domain Courtesy of the Cyber Hymnal™
C:James Bruce Mackay
Z:Public Domain
Z:Courtesy of the Cyber Hymnal™
%%score ( 1 2 ) 3
L:1/8
Q:1/4=90
M:4/4
K:F
V:1 treble 
V:2 treble 
V:3 bass 
V:1
 [Fc][Fc][FA][FA] F2 [FA]2 | [Fd][Fc][FB][FA] [EB]4 | [GB][GB][EG][EG] [CE]2 [Ec]2 | %3
w: 1.~Je- sus found me wan- dering,|Far from Him as- tray,|Ten- der- ly He led me|
w: 2.~I can hear Him whis- per,|When my soul is tried,|“Fear not, I am with thee;|
w: 3.~Would you hear the Sav- ior’s|Gen- tle voice with- in?|Now, while He is call- ing,|
 [Ec][EB][EA][EG] [FA]4 | [Fc][Fc][FA][FA] F2 [FA]2 | [^Fd][Fc][FB][FA] [GB]4 | %6
w: To the shin- ing way;|Words of peace He whis- pered,|Bade my fears de- part;|
w: I am at thy side.”|When the foe as- sails me,|Je- sus takes my part;|
w: Leave the path of sin.|Peace that pass- eth know- ledge|Free- ly He’ll im- part;|
 [EG][FA][EB][Fc] [Fe]2 [Fd]2 | [Fc][Fc][EB][EG] [CF]4 ||"^Refrain" [Fc]2 [FA]2 [CF]2 [FA]2 | %9
w: Oh, ’twas sweet to hear Him,|Whis- pering in my heart.||
w: I re- joice to hear Him|Whis- pering in my heart.|Whis- pering, whis- pering,|
w: You to- day may hear Him|Whis- pering in your heart.||
 [Fd][Fc][FB][FA] [EB]4 | [EB]2 [EG]2 [CE]2 [Ec]2 | [Ec][EB][EA][EG] [FA]3 [Fc] | %12
w: |||
w: Oh, what joy is mine;|Whis- pering, whis- pering,|Words of love di- vine; No|
w: |||
 [Fc][Fc][FA][FA] F2 [FA][FA] | [^Fd][Fc][FB][FA] [GB]3 [GB] | [EG][FA][EB][Fc] [Fe]2 [Fd]2 | %15
w: |||
w: strain of earth- ly mu- sic Such|rap- ture can im- part; I’m|glad I ev- er heard Him|
w: |||
 [Fc][Fc][EB][EG] [CF]4 |] %16
w: |
w: Whis- pering in my heart.|
w: |
V:2
 x4 F2 x2 | x8 | x8 | x8 | x4 F2 x2 | x8 | x8 | x8 || x8 | x8 | x8 | x8 | x4 F2 x2 | x8 | x8 | %15
 x8 |] %16
V:3
 [F,A,][F,A,][F,C][F,C] [A,C]2 [F,C]2 | [F,B,][F,A,][F,D][F,C] [G,C]4 | %2
 [C,C][C,C][C,C][C,C] [C,G,]2 [C,G,]2 | [C,G,][C,G,][C,C][C,C] [F,C]4 | %4
 [F,A,][F,A,][F,C][F,C] [A,C]2 [F,A,]2 | [D,A,][D,A,][D,D][D,D] [G,D]4 | %6
 [B,C][A,C][G,C][F,C] [B,,C]2 [B,,B,]2 | [C,A,][C,A,][C,G,][C,B,] [F,A,]4 || %8
 [F,A,]2 [F,C]2 [F,A,]2 [F,C]2 | [F,A,][F,A,][F,C][F,C] [G,C]4 | [C,G,]2 [C,C]2 [C,G,]2 [C,G,]2 | %11
 [C,G,][C,C][C,C][C,C] [F,C]3 [F,A,] | [F,A,][F,A,][F,C][F,C] [A,C]2 [F,C][F,A,] | %13
 [D,A,][D,A,][D,D][D,D] [G,D]3 [G,D] | [B,C][A,C][G,C][F,C] [B,,C]2 [B,,B,]2 | %15
 [C,A,][C,A,][C,G,][C,B,] [F,A,]4 |] %16

